X: 1858
T: Sırma Saçlı Yârimin...
C: Mısırlı Udî İbrahim Efendi
O: Turkey
F: http://compmusic.upf.edu/node/140
N: hicaz--sarki--semai--sirma_sacli--misirli_udi_ibrahim_efendi
N: makam= hicaz
N: form= sarki
N: usul= semai = 3/4
M: 3/4
L: 1/16
K: C _7/8B ^f ^c 
Q: 1/4=138
%%MIDI tuningsystem comma53
d2e2 d4 (3c2B2c2  | d2e2 d4 (3c2B2c2  | \
w:  ARANAĞME  |   | 
d2e2 d4 e2=f2  | e2d2 c2B2 c4  | 
w:   |   | 
c2d2 c2d2 cBAB  | c2d2 c2d2 cBAB  | c2d2 c4 d2e2  | 
w:   |   |   | 
d3c B2A2 B4  | BcBA B4 A4  | BcBA B4 A4  | \
w:   |   |   | 
BcBA B4 c4  | 
w:   | 
d3c B2A2 G4  | A4 B2A2 d4  | c2d2 c2B2 B2A2  | \
w:   |   |   | 
A4 c4 e4  | A12  | d2e2 d4 (3c2B2c2  | 
w:   |   |  ARANAĞME  | 
d2e2 d4 (3c2B2c2  | d2e2 d4 e2=f2  | \
w:   |   | 
e2d2 c2B2 c4  | c2d2 c2d2 cBAB  | 
w:   |   | 
c2d2 c2d2 cBAB  | c2d2 c4 d2e2  | d3c B2A2 B4  | \
w:   |   |   | 
BcBA B4 A4  | 
w:   | 
BcBA B4 A4  | BcBA B4 c4  | d3c B2A2 G4  | \
w:   |   |   | 
A4 B2A2 d4  | 
w:   | 
c2d2 c2B2 B2A2  | A4 c4 e4  | A12  | d8 g4  | \
w:   |   |   |  Sır ma   | 
f4 e4 e2d2  | d12  | (3g2f2e2 f8  | 
w:  saç  |  lı   |   | 
g2a2 g4 (3f2e2f2  | g2a2 g2f2 f2e2  | e12  | \
w:  yâ  |  *  *  *  *  ri  |  min   | 
d2e2 f2g2 a4  | a12  | a4 g4 f4  | 
w:  SAZ  |  can   |  bah *  şe  | 
g2a2 g2f2 f2e2  | e8 (3f2e2f2  | d8 e4  | \
w:  der  |  ken   |  iş  | 
f2g2 f2e2 e2d2  | d12  | d8 z4  | 
w:  *  *  *  *  ve  |  si    |   | 
d8 g4  | f4 e4 e2d2  | d12  | (3g2f2e2 f8  | \
w:  Sır ma   |  saç  |  lı   |   | 
g2a2 g4 (3f2e2f2  | g2a2 g2f2 f2e2  | 
w:  yâ  |  *  *  *  *  ri  | 
e12  | d2e2 f2g2 a4  | a12  | a4 g4 f4  | g2a2 g2f2 f2e2  | \
w:  min   |  SAZ  |  can   |  bah *  şe  |  der  | 
e8 (3f2e2f2  | d8 e4  | 
w:  ken   |  iş  | 
f2g2 f2e2 e2d2  | d12  | d8 z4  | a2=b2 a2b2 agf2  | \
w:  *  *  *  *  ve  |  si    |   |  SAZ  | 
g2a2 g2a2 gfe2  | 
w:   | 
f2g2 f2g2 fed2  | e3d f3e d4  | A4 d6d2  | \
w:   |   |   | 
A4 d4 z4  | a8 =c'4  | =b4 a4 g4  | 
w:   |  Bâ de  |  ye   | 
f4 e4 f4  | g4 a8  | g2f2 e4 g4  | f4 e4 e2d2  | \
w:  rev  |   |  nâk   |  *  *  ve  | 
d8 e2=f2  | e2d2 c2B2 c4  | 
w:  rir   |   | 
d4 f4 a4  | g4 =f4 e4  | d4 c4 B2A2  | d2c2 B2A2 G4  | \
w:  can  |  lar  *  ya  |  kan   |  gül   | 
A4 B4 d4  | c2d2 c2B2 B2A2  | 
w:  bû  |  *  *  *  *  se  | 
A12  | A8 z4  | a2=b2 a2b2 agf2  | g2a2 g2a2 gfe2  | \
w:  si    |   |  SAZ  |   | 
f2g2 f2g2 fed2  | 
w:   | 
e3d f3e d4  | A4 d6d2  | A4 d4 z4  | a8 =c'4  | \
w:   |   |   |  Bâ de  | 
=b4 a4 g4  | f4 e4 f4  | g4 a8  | 
w:  ye   |  rev  |   | 
g2f2 e4 g4  | f4 e4 e2d2  | d8 e2=f2  | \
w:  nâk   |  *  *  ve  |  rir   | 
e2d2 c2B2 c4  | d4 f4 a4  | g4 =f4 e4  | 
w:   |  can  |  lar  *  ya  | 
d4 c4 B2A2  | d2c2 B2A2 G4  | A4 B4 d4  | \
w:  kan   |  gül   |  bû  | 
c2d2 c2B2 B2A2  | A12  | A8 z4  | 
w:  *  *  *  *  se  |  si    |   | 
f8 g4  | a8 g4  | f2^e2 f4 g4  | a2g2 f2^e2 f4  | \
w:  SAZ  |   |   |   | 
d4 f6f2  | d4 f4 z4  | f8 g4  | 
w:   |   |  Rû hu  | 
a12  | a12  | a2b2 a2b2 a2g2  | a4 b4 c'4  | \
w:  mu   |  tes  |   |  hîr   | 
a4 a2g2 g2f2  | f12  | a2g2 f2^e2 f4  | 
w:  *  *  *  e  |  der   |  SAZ  | 
a12  | g4 =f4 e4  | d4 c4 B4  | A12  | d8 e4  | \
w:  â  |  şuf *  te  |  dir   |  her   |  han  | 
f2g2 f2e2 e2d2  | d12  | d8 z4  | a2=b2 a2b2 agf2  | 
w:  *  *  *  *  de  |  si    |   |  SAZ  | 
g2a2 g2a2 gfe2  | f2g2 f2g2 fed2  | e3d f3e d4  | \
w:   |   |   | 
A4 d6d2  | 
w:   | 
A4 d4 z4  | a8 =c'4  | =b4 a4 g4  | f4 e4 f4  | \
w:   |  Bâ de  |  ye   |  rev  | 
g4 a8  | g2f2 e4 g4  | f4 e4 e2d2  | 
w:   |  nâk   |  *  *  ve  | 
d8 e2=f2  | e2d2 c2B2 c4  | d4 f4 a4  | \
w:  rir   |   |  can  | 
g4 =f4 e4  | d4 c4 B2A2  | d2c2 B2A2 G4  | 
w:  lar  *  ya  |  kan   |  gül   | 
A4 B4 d4  | c2d2 c2B2 B2A2  | A12  | A8 z4  | \
w:  bû  |  *  *  *  *  se  |  si    |   | 
a2=b2 a2b2 agf2  | g2a2 g2a2 gfe2  | 
w:  SAZ  |   | 
f2g2 f2g2 fed2  | e3d f3e d4  | A4 d6d2  | \
w:   |   |   | 
A4 d4 z4  | a8 =c'4  | =b4 a4 g4  | 
w:   |  Bâ de  |  ye   | 
f4 e4 f4  | g4 a8  | g2f2 e4 g4  | f4 e4 e2d2  | \
w:  rev  |   |  nâk   |  *  *  ve  | 
d8 e2=f2  | e2d2 c2B2 c4  | 
w:  rir   |   | 
d4 f4 a4  | g4 =f4 e4  | d4 c4 B2A2  | d2c2 B2A2 G4  | \
w:  can  |  lar  *  ya  |  kan   |  gül   | 
A4 B4 d4  | c2d2 c2B2 B2A2  | 
w:  bû  |  *  *  *  *  se  | 
A12  | A8 z4  | |


